!!!OTL: 71. Gas-nign
!!!Genre:	Gas-nign
!!!Mode:	Minor
!!!Listening/dance:	listening
!!!:	*B-:
!!!One_Mode:	no
**kern
*thru
*I"P1
*clefG2
*k[b-e-]
*>A
!!!Begin-Modulation
*B-:
*M4/4
*>pickup
!LO:TX:a:i:t=Bb-major
8f
=1!|:
(4f
4b-)
(4cc
4dd)
=2
(8.ee-L
16ddJk
4ff)
8ddL
24ccL
24b-
24ccJJ
4b-
=3
(8qdd/
8.ccL)
16bnJk)
(8qdd/
8.ccL)
16bJk)
8qb/
12a-XL
12g
12fJ
8qff/
12ee-L
12dd
12ccJ
=4
8ddL
24ccL
24bn
24ccJJ
(8ffL
8ee-J)
2dd
=5
(4f
4b-X)
(4cc
4dd)
=6
(8.ee-L
16ddJk
8ffL)
8ee-J
8ddL
24ccL
24b-
24ccJJ
4b-
=7
(8qdd/
8.ccL)
16bnJk)
(8qdd/
8.ccL)
16bJk)
4cc
(8qcc/
16b-XLL
16a
16g
16aJJ)
=8
8b-L
(8qcc/
8b-J)
(8qcc/
8b-L)
(8qcc/
8b-J)
2b-
*>A
!!!End-Modulation
*B-:
!LO:TX:a:i:t=Bb-major
=17:|!|:
(16qqf/LL
16qqg/
16qqa/JJ
4b-)
4dd
4cc
4b-
=18
(16ffLL
16gg
16ff
16ggJJ)
(8ffL
24ee-L
24dd
24ee-JJ)
4.dd
8ff
=19
(12bb-L
12aa)
12bb-J
(8qgg/
12ffL)
12een
12ffJ
(8qeen/
12ddL)
12cc#X
12ddJ
24cc#LL
24een
24dd
24cc#
24b-
24cc#JJ
=20
(16ddLL
16ee-X
16dd
16ee-JJ)
(8ddL
24ccnL
24b-
24ccJJ)
4.b-
8ff
=21
(8.bb-L
16aaJk)
(8.aaL
16ggJk)
(8.ggL
16ffJk)
(8.ffL
16ee-Jk)
=22
(8.ee-L
16ddJk)
8.ddL
16ccJk
4cc
24ee-LL
24dd
24cc
24b-
24a
24gJJ
=23
4f
(8.gTL
16fJk)
(8qa/
8.gL)
16fJk
(8ddL
24ccL
24b-
24ccJJ)
=24
8b-L
(8qcc/
8b-)
(8qcc/
8b-)
(8qcc/
8b-J)
(8qcc/
2b-)
*>C
!!!End-Modulation
*-
